X:1
T:Sonata No. 4
T:Sonata No. 4 I. 
T:Op. 30
T:Alexander Scriabin
C:Op. 30
Z:Alexander Scriabin
%%score { ( 1 5 ) | ( 2 3 6 7 ) | 4 }
L:1/8
Q:3/8=63
M:6/8
K:F#
V:1 treble nm="Piano" snm="Pno."
V:5 treble 
V:2 treble 
V:3 treble 
V:6 treble 
V:7 treble 
V:4 bass 
V:1
"^Andante"!pp! z2 z (!tenuto!d3- | d2 d- [dg]3- | g!tenuto!d!<(!!tenuto!e !tenuto!c'3-!<)! | %3
 c'3!>(! e2 f!>)! | !>!a3- a2 a | a2 ^^c e2 d) | %6
"_""^con voglia" !tenuto!d2 (5:4:5z!<(! (.G.A.B.c!<)! |!mp! ^^c2!>(! d- dcd)!>)! | %8
!pp! z2 z (!tenuto!d3- | d2 d- [dg]3- | g!tenuto!d!<(!!tenuto!e !tenuto!c'3-!<)! | %11
 c'3!>(! e2 f)!>)! | (!>!a3- a2 a | _b3 =b=d'=c' | (=c')=f) z (5:3:5z!<(! (.=g.=a._b.c'!<)! | %15
 =f'2 =d' f'2 d'- |!>(! d'_b=f =d_B=B)!>)! | %17
 (!tenuto!=c!>!!tenuto!=E) z (5:3:5z!<(! (.=F.=G._A._B!<)! | B2!>(! =c- cBc)!>)! | %19
!pp! z2"_quietissimo" z (!trill(!T=d'3- | !trill)!d'3{c'=d'} =g'3) | %21
 (=d!>!F) z (5:3:5z!<(! (.=G.=A._B.=c!<)! | !>!c2!>(! =d- dcd)!>)! |!pp! z2 z (!trill(!T=d'3- | %24
 !trill)!d'3{c'=d'} (7:6:7b'/=a'/f'/=e'/g/=a/^a/) | %25
[Q:1/4=94]"^.5""^animando poco a poco" (b[Q:1/4=95]"^.3"!>!d)[Q:1/4=96]"^.1" z[Q:1/4=96]"^.9" (5:3:5z[Q:1/4=97]"^.4"!<(! (.=e[Q:1/4=97]"^.9".f[Q:1/4=98]"^.4".=g[Q:1/4=98]"^.9".=a!<)![Q:1/4=95]"^.1"[Q:1/4=95]"^.7"[Q:1/4=96]"^.3"[Q:1/4=97]"^.6"[Q:1/4=98]"^.2"[Q:1/4=98]"^.8" | %26
[Q:1/4=99]"^.4" a2[Q:1/4=101] b-[Q:1/4=101]"^.8" b[Q:1/4=102]"^.7"a[Q:1/4=103]"^.5"b) | %27
[Q:1/4=104]"^.3" (b[Q:1/4=105]"^.1"!>!d)[Q:1/4=105]"^.9" z[Q:1/4=106]"^.7"!<(! (5:3:5z[Q:1/4=107]"^.2" .=e[Q:1/4=107]"^.7".f[Q:1/4=108]"^.2".=g[Q:1/4=108]"^.7".=a!<)![Q:1/4=104]"^.9"[Q:1/4=105]"^.5"[Q:1/4=106]"^.1"[Q:1/4=107]"^.3"[Q:1/4=108][Q:1/4=108]"^.6" | %28
[Q:1/4=109]"^.2" [fa][Q:1/4=110][=d=d'][Q:1/4=110]"^rit."[d'f'][Q:1/4=109]"^.5" [af'a'][Q:1/4=109]"^.1"[af'a'][Q:1/4=108]"^.6"[af'a'][Q:1/4=109]"^.8"[Q:1/4=109]"^.9"[Q:1/4=109]"^.2"[Q:1/4=108]"^.8"[Q:1/4=108]"^.5" | %29
[Q:1/4=108]"^.1" (a[Q:1/4=107]"^.7"^^c)[Q:1/4=107]"^.2" z[Q:1/4=106]"^.7" (5:3:5z[Q:1/4=106]"^.5"!<(! (.d[Q:1/4=106]"^.2".e[Q:1/4=105]"^.9".f[Q:1/4=105]"^.6".g!<)![Q:1/4=107]"^.8"[Q:1/4=107]"^.4"[Q:1/4=107]"^.1"[Q:1/4=106]"^.4"[Q:1/4=106][Q:1/4=105]"^.7" | %30
[Q:1/4=105]"^.3"!>(! ^^g2[Q:1/4=104]"^.4" a-[Q:1/4=103]"^.9" a[Q:1/4=103]"^.5"g[Q:1/4=103]a)!>)! | %31
[Q:1/4=102]"^.5" (a[Q:1/4=102]"^.1"^^c)[Q:1/4=101]"^.6" z[Q:1/4=101]"^.1"!<(! (5:3:5z[Q:1/4=100]"^.9" (.d[Q:1/4=100]"^.6".e[Q:1/4=100]"^.3".f[Q:1/4=100].g!<)![Q:1/4=102]"^.2"[Q:1/4=101]"^.8"[Q:1/4=101]"^.5"[Q:1/4=100]"^.8"[Q:1/4=100]"^.4"[Q:1/4=100]"^.1" | %32
[Q:1/4=99]"^.7" [ea][Q:1/4=99]"^.3"[dd'][Q:1/4=98]"^.8"[d'e'][Q:1/4=98]"^.3" [ae'a'][Q:1/4=97]"^.9"[ae'a'][Q:1/4=97]"^.4"[ae'a'][Q:1/4=99]"^.4"[Q:1/4=99][Q:1/4=98]"^.7"[Q:1/4=98][Q:1/4=97]"^.6"[Q:1/4=97]"^.3" | %33
[Q:1/4=96]"^.9""_calmando dim." [ae'a'][Q:1/4=96]"^.5"[ae'a'][Q:1/4=96][ae'a'][Q:1/4=95]"^.5" (4:3:4[ae'a'][Q:1/4=95]"^.2"[ae'a'][Q:1/4=94]"^.8"[ae'a'][Q:1/4=94]"^.5"[ae'a']) | %34
!pp!"^quietissimo"!8va(! (4:3:4(.[ae'a'].[ae'a'].[ae'a'].[ae'a']"_dolce cantabile" (4:3:4.[ae'a'].[ae'a'].[ae'a'].[ae'a']) | %35
 (4:3:4(.[=ae'=a'].[ae'a'].[ae'a'].[ae'a'] (4:3:4.[ge'g'].[ge'g'].[ge'g'].[ge'g']) | %36
 (4:3:4(.[gc'g'].[gc'g'].[gc'g'].[gc'g'] (4:3:4.[ge'g'].[ge'g'].[ge'g'].[ge'g']) | %37
 (4:3:4(.[gc'g'].[gc'g'].[gc'g'].[gc'g'] (4:3:4.[=gc'=g'].[g=c'g'].[gc'g'].[fc'f']) | %38
 (4:3:4(.[ff'].[ff'].[faf'].[faf'] (4:3:4.[faf'].[faf'].[ff'].[ff']) | %39
 (4:3:4(.[f^bf'].[fbf'].[fbf'].[ebe'] (4:3:4.[gbg'].[gbg'].[gbg'].[fbf']) | %40
 (4:3:4(.[ebe'].[ebe'].[ebe'].[ebe'] (4:3:4.[ebe'].[ege'].[ege'].[ege']) | %41
 (4:3:4.[e^^ge'].[ege'].[ege'].[ege'] (4:3:4.[ge'g'].[ge'g'].[ge'g'].[gd'g'] | %42
 (3(a'/e'/a'/(3a/e'/a/(3e'/e/e'/ (3a/e'/a/(3a'/e'/a'/(3a/e'/a/ | %43
 (3e'/g/e'/(3=a/e'/a/(3=a'/e'/g'/ (3g/e'/g/(3e'/e/e'/(3g/e'/g/) | %44
 (3(g'/e'/g'/(3g/e'/g/(3e'/e/e'/ (3g/e'/g/(3g'/e'/g'/(3g/c'/g/ | %45
 (3c'/c/c'/(3g/c'/g/(3g'/c'/=g'/ (3=g/c'/g/(3c'/c/c'/(3f/c'/f/) | %46
"_poco cresc." (3(f'/^b/f'/(3f/b/f/(3b/^B/b/ (3f/b/f/(3f'/c'/f'/(3f/b/f/ | %47
 (3b/B/b/(3e/b/e/(3e'/b/e'/ (3e/b/e/(3b/B/b/(3e/b/e/) | %48
 (3(e'/a/e'/(3e/!p!a/"_dim."e/(3a/A/a/ (3e/a/e/(3e'/a/e'/(3a/a'/e'/ | %49
"_smorz." (3a'/e'/e''/(3a'/e''/!pp!a'/a'')!8va)! z2 z | z2 z (^B3- | B2 ^B e3) | %52
 z2 (e'- (4:3:4e'd'ag | e3 d2) z | z2 z (A3- | A2 A d3) | z2 (d'- d'/g'/d'/c'/g/f/ | d3 c2) z | %58
 z2[Q:1/4=94]"^.5""_poco cresc." [DAd]-[Q:1/4=97]"^.7" [DAd]2[Q:1/4=104]"^.2" z | %59
[Q:1/4=107]"^.4" z2[Q:1/4=113]"^.9" [=DF=d]-[Q:1/4=117]"^.1" [DFd]2[Q:1/4=123]"^.6" z | %60
[Q:1/4=126]"^.8" z2[Q:1/4=133]"^.3" [=DF=d]-[Q:1/4=136]"^.5" [DFd]2[Q:1/4=143] z | %61
[Q:1/4=146]"^.2" z2[Q:1/4=152]"^.7" [CFc]-[Q:1/4=155]"^.9" [CFc]2[Q:1/4=162]"^.4" z | %62
[Q:1/4=165]"^.6" z6 | %63
[Q:1/4=185] .[B,DFB][Q:1/4=188]"^.3" z[Q:1/4=191]"^.5" z[Q:1/4=194]"^.7" z2[Q:1/4=201]"^.2" z | %64
[Q:1/4=204]"^.4" z2[Q:1/4=210]"^.9" z[Q:1/4=214]"^.1" .[B,D][Q:1/4=217]"^.4" z[Q:1/4=220]"^.6" z | %65
[Q:1/4=223]"^.8" z2[Q:1/4=230]"^.3" z[Q:1/4=233]"^.5"!mf! .[B,D][Q:1/4=236]"^.8" z[Q:1/4=240] z |] %66
V:2
!p!"^dolciss." A6 | =A3 G3 | G2- G/C/ G3- | G3 G2 F |[K:bass] F6 | F2 E G2 F | [C,B,]6 | B,6 | %8
[K:treble] A6 | =A3 G3 | G2- G/C/ G3- | G3 G2 F |[K:bass] !arpeggio![A,F]6 | %13
 [=E,_B,_G]3 [=F,=A,=F]3 |{_B,,=F,} [_B,=F]6 | [_B,=F_B]6 | z6 | (4:3:4(=D_A,_B,,B,, _B,,,) z z | %18
 _A,6 |[K:treble] !arpeggio![=df=c']6 | [=d=gb]6 |[K:bass] (4:3:4(=E_B,=C,C, =C,,) z z | !>!_B,6 | %23
[K:treble] !arpeggio![=eg=d']6 | [=e=ac']6 |[K:bass] (4:3:4(c=G=A,C (4:3:4=G,=A,,A,,=A,,,) | %26
 !>!=G6 | (4:3:4(c=G=A,C (4:3:4=G,=A,,A,,=A,,,) | (4:3:4(=D,,=D,D,F, (4:3:4=C=DF=c) | %29
 (4:3:4(^BFG,^B, (4:3:4F,G,,G,,G,,,) | !>!F6 | (4:3:4(^BFG,^B, (4:3:4F,G,,G,,G,,,) | %32
 (4:3:4(C,,C,C,E, (4:3:4B,CEB) | z6 |[K:treble] z2 z (!tenuto!d3- | d2 !tenuto!d !tenuto!g3- | %36
 g!tenuto!d!tenuto!f !tenuto!c'3- | c'3 e2 f | a3- a2 a | a2 ^^c e2 d) | %40
 !tenuto!d!tenuto!^^F x (5:3:5z!<(! (.G.A.B.c!<)! | ^^c2 d!>(! c2!>)! d) | z2 z (!tenuto!d3- | %43
 d2 !tenuto!d !tenuto!g3 | g!tenuto!d!tenuto!f !tenuto!c'3- | c'3 e2 f | %46
 a2 !tenuto!^^c !tenuto!e2 !tenuto!d | d2 !tenuto!^^F- F!tenuto!G!tenuto!^^G | %48
[K:bass] !tenuto![A,EA])^^C, z z2 z | z2 z z2 D,- | [D,D]3- [D,D]2 D,,- | [D,,D,]6 | %52
[K:treble] z2 z [F-c]3 | [F^B]3- [FB]2[K:bass] C,- | [C,C]3- [C,C]2 C,,- | [C,,C,]6 | %56
[K:treble] z2 z [=E-B]3 | [EA]3- [EA]2[K:bass] B,,- | [B,,F,]3- [B,,F,]2 ^B,,- | %59
 [B,,A,]3- [B,,A,]2 C,- | [C,A,]3- [C,A,]2 ^^C,- | [^^C,B,]3- [C,B,]2 D, | z6 | .G, z z z2 z | %64
 z2 z .[C,,C,] z z | z2 z .[C,,C,] z z |] %66
V:3
 [B,-F]6 | [B,E]6 | [A,E]3 [=A,C]3- | [A,C]3 C3 |[K:bass]{!>!=D,-A,-} [D,A,]6 | G,6 | x6 | x6 | %8
[K:treble] [B,E]6- | [B,E]6 | [A,E]3 [=A,C]3- | [A,C]3 C3 |[K:bass] !>!=D,3 ^D,2 ^^D, | x6 | x6 | %15
 x6 | x6 | x6 | x6 |[K:treble] _A3 =A2 ^A | B6 |[K:bass] x6 | x6 |[K:treble] _B3 =B2 ^B | c6 | %25
[K:bass] x6 | x6 | x6 | x6 | x6 | x6 | x6 | x6 | x6 |[K:treble] x6 | x6 | x6 | x6 | x6 | x6 | x6 | %41
 x6 | x6 | x6 | x6 | x6 | x6 | x2 (E- E3) |[K:bass] x6 | x6 | x6 | x6 |[K:treble] G6- | %53
 G3- G2[K:bass] x | x6 | x6 |[K:treble] F6- | F3- F2[K:bass] x | x6 | x6 | x6 | x6 | x6 | x6 | x6 | %65
 x6 |] %66
V:4
 z6 | z6 | z6 | z6 | z6 | z6 | z6 | z6 | z6 | z6 | z6 | z6 | z6 | z6 | z6 | z6 | z6 | z6 | z6 | %19
 z6 | z6 | z6 | z6 | z6 | z6 | z6 | z6 | z6 | z6 | z6 | z6 | z6 | z6 | z6 | %34
 ([F,,C,]B,[I:staff -1]E dE[I:staff +1]B,) | ([F,,C,]B,[I:staff -1]E gE[I:staff +1]B,) | %36
 ([F,,C,]!<(!A,[I:staff -1][Ec]!<)! [ce][I:staff +1]C=A,) | %37
 ([F,,C,]=A,[I:staff -1]C!>(! c[I:staff +1][^A,C])[I:staff -1]c!>)! | %38
 ([ca]F[I:staff +1]A, [=D,,=D,]A,[I:staff -1][Fa]) | %39
 (^B[I:staff +1]G,[I:staff -1][FB] [FB][I:staff +1]G,[I:staff -1][FB]) | (E[I:staff +1]B,C,) z2 z | %41
[I:staff -1] ([E^^G][I:staff +1]B,) z[I:staff -1] ([EG][I:staff +1]B,) z | %42
 ([F,,C,]B,[I:staff -1]E dE[I:staff +1]B,) | ([F,,C,]B,[I:staff -1]E gE[I:staff +1]B,) | %44
 ([F,,C,]A,[I:staff -1][Ec] [ce][I:staff +1]C=A,) | %45
 ([F,,C,]=A,[I:staff -1]C!>(! c[I:staff +1][^A,C])[I:staff -1]c!>)! | %46
 ([F^B][I:staff +1]G,[I:staff -1]F) ([FB][I:staff +1]G,[I:staff -1][FB]) | %47
 ([EB][I:staff +1]C,B,- B,3) | z6 | z6 | z6 | z6 | z6 | z6 | z6 | z6 | z6 | z6 | z6 | z6 | z6 | %61
 z6 | z6 | z6 | z6 | z6 |] %66
V:5
 x6 | x6 | d2 c [ce]3- | [ce]3 c3 |{Fc-} c6 | ^B6 | d"_rubato"!tenuto!^^F x4 | [E^^G]6 | x6 | x6 | %10
 (d2 c [ce]3- | [ce]3 c3) |{Fc-} c6 | =d3 _e3 | =d6 | [=d_b]6 | x6 | x6 | [=DF]6 | x6 | x6 | x6 | %22
 [=EG]6 | x6 | x6 | x6 | [ce]6 | x6 | x6 | x6 | [^B^^d]6 | x6 | x6 | x6 |!8va(! x6 | x6 | x6 | x6 | %38
 x6 | x6 | x6 | x6 | x6 | x6 | x6 | x6 | x6 | x6 | x6 | x3!8va)! x2 [C^^F]- | %50
 [CF]2 [C^^F]- [CF]2 [CF]- | [C^^F]2 [CF]- [CF]3 | x6 | x5 [B,F]- | [B,F]2 [B,F]- [B,F]2 [B,F]- | %55
 [B,F]2 [B,E]- [B,E]2 z | x6 | x6 | x6 | x6 | x6 | x6 | x6 | x6 | x6 | x6 |] %66
V:6
 x6 | x6 | x6 | x3 =A,2 ^A, |[K:bass] x6 | x6 | x6 | x6 |[K:treble] x6 | x6 | x6 | x3 =A,2 ^A, | %12
[K:bass] x6 | x6 | x6 | x6 | x6 | x6 | x6 |[K:treble] x6 | x6 |[K:bass] x6 | x6 |[K:treble] x6 | %24
 x6 |[K:bass] x6 | x6 | x6 | x6 | x6 | x6 | x6 | x6 | x6 |[K:treble] x6 | x6 | x6 | x6 | x6 | x6 | %40
 x6 | x6 | x6 | x6 | x6 | x6 | x6 | x6 |[K:bass] x6 | x6 | x6 | x6 |[K:treble] x6 | x5[K:bass] x | %54
 x6 | x6 |[K:treble] x6 | x5[K:bass] x | x6 | x6 | x6 | x6 | x6 | x6 | x6 | x6 |] %66
V:7
 x6 | x6 | x6 | x6 |[K:bass] x6 | x6 | E6 | x6 |[K:treble] x6 | x6 | x6 | x6 |[K:bass] x6 | x6 | %14
[I:staff -1] =c'2 x4 | x6 | x6 | x6 | x6 |[I:staff +1][K:treble] x6 | x6 |[K:bass] x6 | x6 | %23
[K:treble] x6 | x6 |[K:bass] x6 | x6 | x6 | x6 | x6 | x6 | x6 | x6 | x6 |[K:treble] x6 | x6 | x6 | %37
 x6 | x6 | x6 | x6 | x6 | x6 | x6 | x6 | x6 | x6 | x6 |[K:bass] x6 | x6 | x6 | x6 |[K:treble] x6 | %53
 x5[K:bass] x | x6 | x6 |[K:treble] x6 | x5[K:bass] x | x6 | x6 | x6 | x6 | x6 | x6 | x6 | x6 |] %66

